X:974
T:Ramnee Ceilidh
R:reel
C:Gordon Duncan (1964-2005), Scotland
S:David Lombardi
Z:id:hn-reel-974
M:C|
L:1/8
K:D
dBBd A2BA | feef e2de | faaf e2fe | d3e dBAB |
dBBd A2BA | feef e2de | faaf e2fe | dBAB d3e :|
|: f2fA Bde2- | ed~d2 edBd | ~f3A Bde2- | edfe d3e |
f2fA Bde2- | ed~d2 edBd | faaf e2fe | dBAB d3e :|
P:variations
|: dB~B2 A2FA | f2gf e2de | f2af e2fe | d3c dBAB |
dB~B2 A2FA | feef e2de | f2af egfe | dBAB d3e :|
|: f2fA Bde2- | ed (3Bcd edBd | ~f3A Bde2- | edfe ~d3e |
f2fA Bde2- | ed (3Bcd edBd | f2af egfe | dBAB d3e :|

